;FLAVOR:Marlin
;TIME:2447
;Filament used: 7.5764m
;Layer height: 0.2
;MINX:38.431
;MINY:60.283
;MINZ:0.16
;MAXX:181.61
;MAXY:161.046
;MAXZ:10.66
;TARGET_MACHINE.NAME:Unknown
;Generated with Cura_SteamEngine 5.10.1
M140 S60
M105
M190 S60
M104 S215
M105
M109 S215
G28 ;Home
G1 Z15.0 F6000 ;Move the platform down 15mm
;Prime the extruder
G92 E0
G1 F200 E3
G92 E0
M82 ;absolute extrusion mode
G92 E0
G92 E0
G1 F4800 E-2.5
;LAYER_COUNT:53
;LAYER:0
M107
G0 X42.578 Y63.83 Z0.26
;TYPE:SKIRT
G1 F4800 E0
G1 X43.586 Y63.309 E0.08831
G1 X45.404 Y62.767 E0.23596
G1 X64.499 Y62.768 E1.7221
G1 X66.491 Y63.186 E1.88051
G1 X68.221 Y64.032 E2.03039
G1 X69.561 Y65.149 E2.16616
G1 X70.216 Y65.849 E2.24077
G1 X71.181 Y67.373 E2.38116
G1 X71.451 Y67.959 E2.43138
G1 X72.663 Y72.673 E2.81019
G1 X72.855 Y74.634 E2.96355
G1 X72.614 Y75.773 E3.05416
G1 X72.902 Y75.986 E3.08204
G1 X74.086 Y77.293 E3.21929
G1 X74.589 Y78.01 E3.28746
G1 X74.877 Y78.645 E3.34172
G1 X75.908 Y77.848 E3.44314
G1 X77.711 Y76.771 E3.6066
G1 X78.77 Y76.302 E3.69674
G1 X80.138 Y75.824 E3.80952
G1 X82.481 Y75.412 E3.99467
G1 X139.665 Y75.476 E8.44523
G1 X140.99 Y75.659 E8.54933
G1 X142.452 Y75.998 E8.66614
G1 X144.649 Y76.909 E8.85125
G1 X145.73 Y77.604 E8.95127
G1 X145.73 Y74.733 E9.17471
G1 X146.073 Y72.842 E9.32429
G1 X147.116 Y70.48 E9.52524
G1 X147.98 Y68.936 E9.66295
G1 X149.162 Y67.282 E9.82117
G1 X150.192 Y66.093 E9.9436
G1 X151.305 Y65.012 E10.06436
G1 X153.061 Y63.614 E10.23904
G1 X154.617 Y62.647 E10.38163
G1 X156.244 Y61.842 E10.52291
G1 X158.417 Y61.042 E10.70313
G1 X160.207 Y60.615 E10.84635
G1 X162.277 Y60.326 E11.00902
G1 X163.388 Y60.283 E11.09555
G1 X165.775 Y60.405 E11.28157
G1 X167.056 Y60.594 E11.38235
G1 X169.226 Y61.133 E11.55637
G1 X171.204 Y61.88 E11.72092
G1 X172.507 Y62.514 E11.8337
G1 X174.61 Y63.795 E12.02535
G1 X176.781 Y65.711 E12.25071
G1 X178.117 Y67.186 E12.40559
G1 X179.319 Y68.871 E12.56668
G1 X180.573 Y71.183 E12.77139
G1 X181.215 Y72.738 E12.90232
G1 X181.61 Y74.547 E13.04643
G1 X181.61 Y100.205 E15.04336
G1 X181.194 Y102.182 E15.2006
G1 X180.228 Y104.145 E15.37087
G1 X180.008 Y104.415 E15.39798
G1 X180.095 Y104.597 E15.41368
G1 X180.552 Y106.135 E15.53855
G1 X180.77 Y107.347 E15.63439
G1 X180.77 Y116.128 E16.31781
G1 X179.634 Y120.56 E16.67389
G1 X178.732 Y122.386 E16.8324
G1 X177.746 Y123.519 E16.9493
G1 X177.077 Y124.126 E17.0196
G1 X177.095 Y130.418 E17.5093
G1 X171.044 Y153.984 E19.40291
G1 X170.107 Y155.874 E19.56709
G1 X168.946 Y157.136 E19.70055
G1 X167.911 Y158.043 E19.80766
G1 X166.123 Y158.964 E19.96419
G1 X164.195 Y159.4 E20.11804
G1 X145.626 Y159.399 E21.56324
G1 X143.626 Y158.982 E21.72224
G1 X142.011 Y158.187 E21.86234
G1 X140.701 Y157.179 E21.99099
G1 X139.896 Y156.261 E22.08601
G1 X139.013 Y154.853 E22.21536
G1 X138.515 Y153.628 E22.31828
G1 X138.175 Y151.872 E22.45748
G1 X138.298 Y149.641 E22.63138
G1 X138.991 Y147.679 E22.79333
G1 X139.15 Y147.412 E22.81751
G1 X138.774 Y147.447 E22.8469
G1 X82.459 Y147.399 E27.22983
G1 X81.195 Y147.232 E27.32906
G1 X81.169 Y148.015 E27.39003
G1 X80.629 Y149.746 E27.53116
G1 X80.083 Y151.009 E27.63825
G1 X79.254 Y152.554 E27.77471
G1 X78.17 Y154.119 E27.92288
G1 X76.707 Y155.801 E28.09637
G1 X75.307 Y157.067 E28.24328
G1 X74.113 Y157.967 E28.35965
G1 X73.185 Y158.556 E28.44519
G1 X71.42 Y159.467 E28.59978
G1 X69.326 Y160.269 E28.7743
G1 X67.638 Y160.698 E28.90985
G1 X65.494 Y160.985 E29.0782
G1 X63.96 Y161.046 E29.19769
G1 X62.795 Y160.993 E29.28845
G1 X60.709 Y160.706 E29.45233
G1 X58.876 Y160.254 E29.59926
G1 X57.706 Y159.839 E29.69588
G1 X55.768 Y158.95 E29.86183
G1 X54.994 Y158.51 E29.93112
G1 X53.268 Y157.312 E30.09464
G1 X51.95 Y156.182 E30.22976
G1 X50.694 Y154.872 E30.371
G1 X49.807 Y153.738 E30.48305
G1 X48.771 Y152.128 E30.63206
G1 X48.055 Y150.744 E30.75333
G1 X47.422 Y149.262 E30.87876
G1 X47.013 Y147.23 E31.04008
G1 X46.997 Y146.86 E31.0689
G1 X47.21 Y145.015 E31.21345
G1 X47.478 Y143.898 E31.30285
G1 X47.859 Y143.095 E31.37202
G1 X46.991 Y141.803 E31.49316
G1 X46.459 Y140.265 E31.61982
G1 X46.193 Y138.73 E31.74107
G1 X46.193 Y116.182 E33.49595
G1 X42.499 Y82.699 E36.1177
G1 X42.548 Y81.604 E36.20301
G1 X42.699 Y80.707 E36.2738
G1 X43.377 Y78.909 E36.42336
G1 X40.796 Y76.606 E36.69258
G1 X39.65 Y75.208 E36.83327
G1 X38.808 Y73.328 E36.99359
G1 X38.485 Y71.715 E37.12162
G1 X38.431 Y70.813 E37.19195
G1 X38.663 Y68.804 E37.34934
G1 X39.573 Y66.628 E37.53291
G1 X41.054 Y64.849 E37.71307
G1 X42.578 Y63.83 E37.85575
G0 X42.854 Y64.363
G1 X43.813 Y63.867 E37.93978
G1 X45.491 Y63.367 E38.07605
G1 X64.438 Y63.368 E39.55067
G1 X66.295 Y63.758 E39.69835
G1 X67.891 Y64.538 E39.83661
G1 X69.123 Y65.559 E39.96114
G1 X69.739 Y66.217 E40.03129
G1 X70.674 Y67.694 E40.16734
G1 X70.883 Y68.16 E40.20709
G1 X72.07 Y72.777 E40.57811
G1 X72.249 Y74.6 E40.72067
G1 X71.943 Y76.046 E40.83571
G1 X72.458 Y76.39 E40.88391
G1 X73.595 Y77.638 E41.0153
G1 X74.067 Y78.311 E41.07928
G1 X74.683 Y79.668 E41.19527
G1 X75.083 Y79.244 E41.24063
G1 X76.275 Y78.323 E41.35787
G1 X77.954 Y77.32 E41.51009
G1 X79.013 Y76.851 E41.60023
G1 X80.291 Y76.406 E41.70555
G1 X82.533 Y76.012 E41.88272
G1 X139.584 Y76.071 E46.32292
G1 X140.855 Y76.244 E46.42276
G1 X142.271 Y76.572 E46.53588
G1 X144.366 Y77.441 E46.7124
G1 X146.109 Y78.562 E46.87369
G1 X146.33 Y78.755 E46.89653
G1 X146.33 Y74.785 E47.20551
G1 X146.65 Y73.021 E47.34504
G1 X147.64 Y70.772 E47.53628
G1 X148.469 Y69.284 E47.66885
G1 X149.616 Y67.674 E47.8227
G1 X150.611 Y66.523 E47.94112
G1 X151.68 Y65.481 E48.0573
G1 X153.378 Y64.124 E48.22647
G1 X154.934 Y63.157 E48.36905
G1 X156.452 Y62.405 E48.5009
G1 X158.556 Y61.626 E48.67551
G1 X160.346 Y61.199 E48.81874
G1 X162.3 Y60.926 E48.97229
G1 X163.411 Y60.883 E49.05882
G1 X165.687 Y60.999 E49.23619
G1 X166.968 Y61.188 E49.33697
G1 X169.015 Y61.695 E49.5011
G1 X170.941 Y62.42 E49.66127
G1 X172.244 Y63.054 E49.77404
G1 X174.254 Y64.28 E49.95728
G1 X176.337 Y66.114 E50.17328
G1 X177.629 Y67.536 E50.32281
G1 X178.792 Y69.158 E50.47815
G1 X180.018 Y71.412 E50.67785
G1 X180.641 Y72.921 E50.80491
G1 X181.01 Y74.611 E50.93953
G1 X181.01 Y100.143 E52.92666
G1 X180.622 Y101.986 E53.07324
G1 X179.69 Y103.88 E53.23753
G1 X179.262 Y104.328 E53.28575
G1 X179.52 Y104.769 E53.32551
G1 X179.961 Y106.241 E53.44511
G1 X180.17 Y107.403 E53.537
G1 X180.17 Y116.053 E54.21022
G1 X179.069 Y120.349 E54.55537
G1 X178.229 Y122.05 E54.70302
G1 X177.293 Y123.125 E54.81396
G1 X176.476 Y123.86 E54.89949
G1 X176.495 Y130.344 E55.40413
G1 X170.479 Y153.772 E57.28666
G1 X169.607 Y155.531 E57.43946
G1 X168.504 Y156.73 E57.56626
G1 X167.572 Y157.543 E57.66251
G1 X165.916 Y158.396 E57.80749
G1 X164.129 Y158.8 E57.95008
G1 X145.687 Y158.799 E59.3854
G1 X143.823 Y158.41 E59.5336
G1 X142.333 Y157.677 E59.66283
G1 X141.11 Y156.736 E59.78293
G1 X140.38 Y155.903 E59.86914
G1 X139.55 Y154.58 E59.99069
G1 X139.093 Y153.455 E60.08519
G1 X138.778 Y151.831 E60.21394
G1 X138.892 Y149.761 E60.37529
G1 X139.557 Y147.879 E60.53064
G1 X140.379 Y146.686 E60.6434
G1 X138.774 Y146.847 E60.76894
G1 X82.538 Y146.804 E65.14572
G1 X80.995 Y146.6 E65.26685
G1 X80.619 Y146.505 E65.29703
G1 X80.572 Y147.914 E65.40676
G1 X80.056 Y149.567 E65.54153
G1 X79.554 Y150.725 E65.63976
G1 X78.725 Y152.27 E65.77622
G1 X77.716 Y153.726 E65.91409
G1 X76.304 Y155.356 E66.08193
G1 X74.945 Y156.588 E66.22469
G1 X73.79 Y157.461 E66.33737
G1 X72.909 Y158.023 E66.4187
G1 X71.205 Y158.907 E66.56811
G1 X69.178 Y159.687 E66.73714
G1 X67.49 Y160.116 E66.8727
G1 X65.469 Y160.386 E67.03139
G1 X63.986 Y160.447 E67.1469
G1 X62.876 Y160.399 E67.23337
G1 X60.853 Y160.123 E67.39228
G1 X59.02 Y159.671 E67.53921
G1 X57.908 Y159.274 E67.63111
G1 X56.065 Y158.428 E67.78894
G1 X55.291 Y157.988 E67.85823
G1 X53.659 Y156.856 E68.01281
G1 X52.341 Y155.726 E68.14793
G1 X51.167 Y154.502 E68.27993
G1 X50.28 Y153.368 E68.39198
G1 X49.304 Y151.852 E68.5323
G1 X48.607 Y150.508 E68.65013
G1 X47.997 Y149.08 E68.77099
G1 X47.601 Y147.112 E68.92723
G1 X47.593 Y146.927 E68.94164
G1 X47.793 Y145.155 E69.08043
G1 X48.046 Y144.1 E69.16486
G1 X48.547 Y143.043 E69.2559
G1 X47.532 Y141.532 E69.39757
G1 X47.042 Y140.115 E69.51426
G1 X46.793 Y138.679 E69.62769
G1 X46.793 Y116.152 E71.38094
G1 X43.1 Y82.679 E74.00191
G1 X43.14 Y81.704 E74.07785
G1 X43.282 Y80.861 E74.14439
G1 X43.972 Y79.03 E74.29667
G1 X44.132 Y78.778 E74.31991
G1 X41.227 Y76.185 E74.62296
G1 X40.166 Y74.891 E74.7532
G1 X39.383 Y73.143 E74.90227
G1 X39.084 Y71.679 E75.01856
G1 X39.033 Y70.829 E75.08484
G1 X39.249 Y68.959 E75.23134
G1 X40.093 Y66.941 E75.40159
G1 X41.459 Y65.3 E75.56776
G1 X42.854 Y64.363 E75.69855
G0 X43.13 Y64.896
G1 X44.04 Y64.425 E75.7783
G1 X45.578 Y63.967 E75.90319
G1 X64.377 Y63.968 E77.3663
G1 X66.097 Y64.329 E77.50308
G1 X67.565 Y65.047 E77.63026
G1 X68.685 Y65.969 E77.74317
G1 X69.262 Y66.585 E77.80886
G1 X70.167 Y68.015 E77.94057
G1 X70.315 Y68.359 E77.96972
G1 X71.478 Y72.881 E78.33311
G1 X71.643 Y74.566 E78.46488
G1 X71.316 Y76.111 E78.58779
G1 X71.248 Y76.303 E78.60364
G1 X72.063 Y76.847 E78.6799
G1 X73.151 Y78.042 E78.80568
G1 X73.545 Y78.611 E78.85955
G1 X74.17 Y79.989 E78.97731
G1 X74.396 Y80.868 E79.04795
G1 X75.45 Y79.719 E79.1693
G1 X76.642 Y78.798 E79.28654
G1 X78.197 Y77.869 E79.42751
G1 X79.256 Y77.4 E79.51765
G1 X80.444 Y76.988 E79.61552
G1 X82.585 Y76.612 E79.7847
G1 X139.504 Y76.666 E84.21463
G1 X140.72 Y76.829 E84.31012
G1 X142.09 Y77.146 E84.41956
G1 X144.083 Y77.973 E84.5875
G1 X145.784 Y79.067 E84.7449
G1 X146.93 Y80.129 E84.8665
G1 X146.93 Y74.837 E85.27837
G1 X147.227 Y73.197 E85.40809
G1 X148.165 Y71.063 E85.58951
G1 X148.958 Y69.632 E85.71684
G1 X150.071 Y68.066 E85.86637
G1 X151.03 Y66.953 E85.98071
G1 X152.099 Y65.911 E86.0969
G1 X153.695 Y64.634 E86.25598
G1 X155.251 Y63.667 E86.39856
G1 X156.661 Y62.967 E86.52108
G1 X158.696 Y62.209 E86.69009
G1 X160.43 Y61.793 E86.82887
G1 X162.323 Y61.526 E86.97766
G1 X163.434 Y61.483 E87.06419
G1 X165.599 Y61.593 E87.23291
G1 X166.88 Y61.782 E87.33369
G1 X168.87 Y62.277 E87.49329
G1 X170.678 Y62.96 E87.64371
G1 X171.981 Y63.594 E87.75649
G1 X173.897 Y64.765 E87.93125
G1 X175.94 Y66.564 E88.14311
G1 X177.141 Y67.886 E88.28212
G1 X178.304 Y69.508 E88.43746
G1 X179.463 Y71.641 E88.62639
G1 X180.067 Y73.104 E88.74958
G1 X180.41 Y74.675 E88.87473
G1 X180.41 Y100.082 E90.85212
G1 X180.051 Y101.789 E90.98788
G1 X179.193 Y103.532 E91.13908
G1 X178.5 Y104.258 E91.21719
G1 X178.946 Y104.942 E91.28074
G1 X179.37 Y106.347 E91.39496
G1 X179.57 Y107.459 E91.4829
G1 X179.57 Y115.978 E92.14592
G1 X178.503 Y120.14 E92.48032
G1 X177.726 Y121.715 E92.61701
G1 X176.89 Y122.68 E92.71637
G1 X176.119 Y123.379 E92.79737
G1 X175.875 Y123.541 E92.82016
G1 X175.895 Y130.27 E93.34388
G1 X169.914 Y153.56 E95.21532
G1 X169.107 Y155.188 E95.35674
G1 X168.062 Y156.324 E95.47687
G1 X167.233 Y157.043 E95.56228
G1 X165.709 Y157.828 E95.6957
G1 X164.063 Y158.2 E95.82704
G1 X145.747 Y158.199 E97.25255
G1 X144.02 Y157.839 E97.38985
G1 X142.651 Y157.165 E97.50861
G1 X141.522 Y156.296 E97.61949
G1 X140.864 Y155.545 E97.6972
G1 X140.087 Y154.307 E97.81096
G1 X139.671 Y153.282 E97.89705
G1 X139.381 Y151.79 E98.01535
G1 X139.486 Y149.881 E98.16415
G1 X140.097 Y148.152 E98.30687
G1 X141.191 Y146.564 E98.45695
G1 X142.236 Y145.678 E98.56358
G1 X141.113 Y146.007 E98.65465
G1 X138.774 Y146.247 E98.83765
G1 X82.617 Y146.209 E103.20828
G1 X81.074 Y146.005 E103.32941
G1 X79.955 Y145.708 E103.41952
G1 X80.026 Y146.26 E103.46284
G1 X79.975 Y147.813 E103.58377
G1 X79.483 Y149.388 E103.71219
G1 X79.025 Y150.441 E103.80156
G1 X78.196 Y151.986 E103.93802
G1 X77.262 Y153.334 E104.06566
G1 X75.9 Y154.912 E104.22789
G1 X74.583 Y156.109 E104.3664
G1 X73.428 Y156.982 E104.47908
G1 X72.632 Y157.491 E104.55262
G1 X70.988 Y158.347 E104.69687
G1 X69.03 Y159.105 E104.86028
G1 X67.342 Y159.534 E104.99583
G1 X65.444 Y159.787 E105.14486
G1 X64.01 Y159.847 E105.25656
G1 X62.956 Y159.804 E105.33866
G1 X60.997 Y159.54 E105.49251
G1 X59.164 Y159.088 E105.63944
G1 X58.111 Y158.709 E105.72654
G1 X56.362 Y157.906 E105.87633
G1 X55.588 Y157.466 E105.94562
G1 X54.001 Y156.363 E106.09604
G1 X52.773 Y155.31 E106.22193
G1 X51.64 Y154.132 E106.34914
G1 X50.753 Y152.998 E106.46119
G1 X49.836 Y151.575 E106.59294
G1 X49.159 Y150.272 E106.70723
G1 X48.573 Y148.899 E106.82341
G1 X48.189 Y146.993 E106.97473
G1 X48.377 Y145.295 E107.10769
G1 X48.616 Y144.297 E107.18756
G1 X49.26 Y142.94 E107.30447
G1 X49.061 Y142.733 E107.32681
G1 X48.074 Y141.263 E107.46462
G1 X47.625 Y139.965 E107.57151
G1 X47.393 Y138.628 E107.67713
G1 X47.393 Y116.122 E109.42874
G1 X43.7 Y82.7 E112.04576
G1 X43.732 Y81.804 E112.11554
G1 X43.865 Y81.015 E112.17781
G1 X44.533 Y79.242 E112.32527
G1 X44.947 Y78.7 E112.37835
G1 X41.658 Y75.764 E112.72149
G1 X40.682 Y74.574 E112.84127
G1 X39.958 Y72.957 E112.97916
G1 X39.672 Y71.559 E113.09021
G1 X39.635 Y70.847 E113.1457
G1 X39.835 Y69.113 E113.28155
G1 X40.612 Y67.255 E113.43829
G1 X41.865 Y65.75 E113.59071
G1 X43.13 Y64.896 E113.7095
G0 X43.406 Y65.429
G1 X44.267 Y64.983 E113.78496
G1 X45.665 Y64.567 E113.89848
G1 X64.316 Y64.568 E115.35007
G1 X65.899 Y64.9 E115.47595
G1 X67.239 Y65.556 E115.59207
G1 X68.247 Y66.379 E115.69335
G1 X68.785 Y66.953 E115.75458
G1 X69.66 Y68.336 E115.88195
G1 X69.734 Y68.508 E115.89652
G1 X70.885 Y72.985 E116.25629
G1 X71.037 Y74.534 E116.37743
G1 X70.75 Y75.911 E116.4869
G1 X70.527 Y76.543 E116.53906
G1 X71.67 Y77.306 E116.64602
G1 X72.658 Y78.384 E116.75982
G1 X73.019 Y78.905 E116.80915
G1 X73.603 Y80.194 E116.91929
G1 X74.125 Y82.224 E117.08242
G1 X74.538 Y81.601 E117.1406
G1 X75.857 Y80.163 E117.29247
G1 X77.009 Y79.273 E117.40576
G1 X78.44 Y78.418 E117.5355
G1 X79.499 Y77.949 E117.62564
G1 X80.594 Y77.571 E117.7158
G1 X82.637 Y77.212 E117.87724
G1 X139.424 Y77.261 E122.2969
G1 X140.64 Y77.424 E122.39239
G1 X141.905 Y77.719 E122.49348
G1 X143.8 Y78.505 E122.65315
G1 X145.417 Y79.545 E122.80278
G1 X146.904 Y80.923 E122.96057
G1 X147.53 Y81.779 E123.0431
G1 X147.53 Y74.889 E123.57934
G1 X147.804 Y73.373 E123.69924
G1 X148.691 Y71.353 E123.87095
G1 X149.448 Y69.979 E123.99304
G1 X150.526 Y68.458 E124.13813
G1 X151.485 Y67.345 E124.25248
G1 X152.475 Y66.379 E124.36013
G1 X154.012 Y65.144 E124.51358
G1 X155.568 Y64.177 E124.65617
G1 X156.927 Y63.505 E124.77416
G1 X158.837 Y62.792 E124.93283
G1 X160.515 Y62.387 E125.06718
G1 X162.346 Y62.126 E125.21112
G1 X163.457 Y62.083 E125.29766
G1 X165.511 Y62.187 E125.45772
G1 X166.792 Y62.376 E125.5585
G1 X168.659 Y62.839 E125.70821
G1 X170.415 Y63.5 E125.85424
G1 X171.718 Y64.134 E125.96702
G1 X173.54 Y65.25 E126.13331
G1 X175.543 Y67.014 E126.34103
G1 X176.653 Y68.236 E126.46952
G1 X177.816 Y69.858 E126.62485
G1 X178.908 Y71.87 E126.80302
G1 X179.493 Y73.287 E126.92233
G1 X179.81 Y74.739 E127.038
G1 X179.81 Y100.02 E129.00559
G1 X179.479 Y101.593 E129.1307
G1 X178.696 Y103.184 E129.2687
G1 X177.738 Y104.188 E129.37671
G1 X178.397 Y105.199 E129.47063
G1 X178.779 Y106.453 E129.57266
G1 X178.97 Y107.515 E129.65664
G1 X178.97 Y115.903 E130.30947
G1 X177.938 Y119.929 E130.63294
G1 X177.222 Y121.379 E130.7588
G1 X176.436 Y122.287 E130.85226
G1 X175.718 Y122.933 E130.92743
G1 X175.274 Y123.205 E130.96796
G1 X175.295 Y130.196 E131.51206
G1 X169.349 Y153.348 E133.37243
G1 X168.607 Y154.845 E133.50246
G1 X167.62 Y155.918 E133.61593
G1 X166.894 Y156.543 E133.69049
G1 X165.502 Y157.26 E133.81235
G1 X163.997 Y157.6 E133.93244
G1 X145.808 Y157.599 E135.34806
G1 X144.217 Y157.267 E135.47456
G1 X142.969 Y156.653 E135.58281
G1 X141.934 Y155.856 E135.68447
G1 X141.348 Y155.187 E135.75369
G1 X140.624 Y154.034 E135.85965
G1 X140.249 Y153.11 E135.93726
G1 X139.984 Y151.748 E136.04525
G1 X140.08 Y150.001 E136.18143
G1 X140.637 Y148.425 E136.31152
G1 X141.638 Y146.972 E136.44884
G1 X144.389 Y144.639 E136.72958
G1 X144.484 Y144.068 E136.77463
G1 X144.088 Y144.316 E136.81099
G1 X142.431 Y144.995 E136.95036
G1 X140.997 Y145.416 E137.06668
G1 X138.774 Y145.647 E137.24062
G1 X82.696 Y145.614 E141.6051
G1 X81.153 Y145.41 E141.72624
G1 X79.45 Y144.951 E141.86351
G1 X79.223 Y144.86 E141.88254
G1 X79.426 Y146.24 E141.9911
G1 X79.378 Y147.713 E142.1058
G1 X78.933 Y149.149 E142.22281
