;FLAVOR:Marlin
;TIME:951
;Filament used: 2.74213m
;Layer height: 0.2
;MINX:97.333
;MINY:55.407
;MINZ:0.16
;MAXX:177.488
;MAXY:142.09
;MAXZ:3.86
;TARGET_MACHINE.NAME:Unknown
;Generated with Cura_SteamEngine 5.10.1
M140 S60
M105
M190 S60
M104 S215
M105
M109 S215
G28 ;Home
G1 Z15.0 F6000 ;Move the platform down 15mm
;Prime the extruder
G92 E0
G1 F200 E3
G92 E0
M82 ;absolute extrusion mode
G92 E0
G92 E0
G1 F4800 E-2.5
;LAYER_COUNT:19
;LAYER:0
M107
G0 X100.708 Y76.418 Z0.26
;TYPE:SKIRT
G1 F4800 E0
G1 X102.313 Y75.174 E0.15804
G1 X103.887 Y74.375 E0.29543
G1 X104.567 Y74.176 E0.35057
G1 X106.202 Y73.921 E0.47936
G1 X111.032 Y73.961 E0.85528
G1 X112.619 Y74.117 E0.97939
G1 X114.933 Y74.794 E1.16704
G1 X116.486 Y75.662 E1.3055
G1 X117.775 Y76.566 E1.42804
G1 X118.864 Y77.658 E1.54806
G1 X118.692 Y76.001 E1.67772
G1 X118.675 Y74.618 E1.78536
G1 X118.738 Y73.24 E1.89272
G1 X118.825 Y72.336 E1.96341
G1 X119.021 Y71.011 E2.06765
G1 X119.207 Y70.153 E2.13598
G1 X119.657 Y68.554 E2.26526
G1 X120.076 Y67.449 E2.35724
G1 X120.673 Y66.273 E2.45988
G1 X121.447 Y65.237 E2.56053
G1 X123.024 Y63.798 E2.72669
G1 X124.794 Y62.977 E2.87854
G1 X126.772 Y62.48 E3.03727
G1 X128.416 Y62.524 E3.16527
G1 X128.591 Y61.282 E3.26288
G1 X129.58 Y59.111 E3.44856
G1 X130.892 Y57.633 E3.60237
G1 X132.109 Y56.665 E3.7234
G1 X133.952 Y55.781 E3.88248
G1 X135.812 Y55.43 E4.0298
G1 X137.319 Y55.407 E4.1471
G1 X139.076 Y55.507 E4.28407
G1 X140.558 Y55.721 E4.40061
G1 X141.942 Y56.041 E4.51116
G1 X143.541 Y56.552 E4.64181
G1 X144.54 Y56.948 E4.72545
G1 X145.998 Y57.658 E4.85166
G1 X147.251 Y58.379 E4.96417
G1 X148.5 Y59.226 E5.08162
G1 X149.564 Y60.085 E5.18805
G1 X151.086 Y61.505 E5.35006
G1 X152.361 Y63.297 E5.52123
G1 X153.224 Y65.142 E5.67975
G1 X153.762 Y67.235 E5.84794
G1 X153.82 Y69.366 E6.01386
G1 X153.583 Y71.187 E6.15678
G1 X152.829 Y73.008 E6.31017
G1 X152.121 Y74.082 E6.41029
G1 X151.449 Y74.82 E6.48797
G1 X152.071 Y76.096 E6.59845
G1 X152.613 Y78.433 E6.78516
G1 X152.597 Y79.06 E6.83398
G1 X167.714 Y79.125 E8.01053
G1 X169.183 Y79.334 E8.12601
G1 X171.409 Y80.108 E8.30943
G1 X173.724 Y81.645 E8.5257
G1 X175.154 Y83.202 E8.69023
G1 X176.405 Y85.061 E8.86462
G1 X177.337 Y87.833 E9.09223
G1 X177.488 Y89.96 E9.25819
G1 X177.485 Y111.421 E10.92847
G1 X177.063 Y113.431 E11.08832
G1 X176.292 Y114.975 E11.22264
G1 X175.857 Y115.618 E11.28306
G1 X176.04 Y115.973 E11.31414
G1 X176.462 Y117.503 E11.43766
G1 X176.648 Y118.634 E11.52687
G1 X176.646 Y132.751 E12.62558
G1 X176.276 Y134.941 E12.79844
G1 X175.419 Y136.861 E12.96208
G1 X174.22 Y138.635 E13.12873
G1 X172.586 Y140.135 E13.30136
G1 X170.849 Y141.167 E13.45861
G1 X168.642 Y141.93 E13.64035
G1 X166.553 Y142.09 E13.80341
G1 X123.626 Y142.085 E17.14436
G1 X121.367 Y141.633 E17.32366
G1 X119.335 Y140.672 E17.49861
G1 X117.643 Y139.434 E17.66178
G1 X116.424 Y137.981 E17.80939
G1 X115.805 Y138.374 E17.86645
G1 X113.964 Y138.876 E18.01497
G1 X112.99 Y139.03 E18.09172
G1 X109.676 Y139.03 E18.34964
G1 X109.12 Y138.928 E18.39363
G1 X108.551 Y139.03 E18.43863
G1 X104.892 Y139.03 E18.7234
G1 X103.134 Y138.624 E18.86382
G1 X101.842 Y138.084 E18.97281
G1 X100.063 Y136.867 E19.14056
G1 X98.794 Y135.229 E19.30183
G1 X97.918 Y133.487 E19.45358
G1 X97.861 Y133.31 E19.46806
G1 X97.562 Y131.413 E19.61752
G1 X97.604 Y118.872 E20.59358
G1 X97.713 Y117.803 E20.67721
G1 X97.575 Y117.374 E20.71228
G1 X97.333 Y115.853 E20.83215
G1 X97.333 Y100.003 E22.06573
G1 X97.739 Y98.248 E22.20593
G1 X98.257 Y97.009 E22.31045
G1 X98.549 Y96.561 E22.35207
G1 X98.544 Y81.251 E23.54362
G1 X98.948 Y79.506 E23.68303
G1 X99.495 Y78.184 E23.79438
G1 X100.708 Y76.418 E23.96112
G0 X101.149 Y76.836
G1 X102.635 Y75.684 E24.10746
G1 X104.109 Y74.936 E24.2361
G1 X104.736 Y74.752 E24.28696
G1 X106.246 Y74.521 E24.40585
G1 X110.973 Y74.558 E24.77376
G1 X112.502 Y74.708 E24.89333
G1 X114.699 Y75.351 E25.07149
G1 X116.193 Y76.186 E25.20469
G1 X117.386 Y77.026 E25.31825
G1 X118.62 Y78.264 E25.45429
G1 X119.761 Y79.966 E25.61377
G1 X120.074 Y80.714 E25.67688
G1 X120.154 Y80.685 E25.6835
G1 X119.898 Y79.819 E25.75378
G1 X119.479 Y77.768 E25.91671
G1 X119.292 Y75.994 E26.05554
G1 X119.275 Y74.611 E26.16318
G1 X119.335 Y73.297 E26.26556
G1 X119.419 Y72.423 E26.33389
G1 X119.608 Y71.137 E26.43506
G1 X119.785 Y70.316 E26.50042
G1 X120.235 Y68.717 E26.6297
G1 X120.611 Y67.721 E26.71256
G1 X121.185 Y66.591 E26.8112
G1 X121.896 Y65.639 E26.90368
G1 X123.359 Y64.304 E27.05782
G1 X124.995 Y63.545 E27.19819
G1 X126.838 Y63.082 E27.34608
G1 X128.214 Y63.119 E27.45321
G1 X128.94 Y63.106 E27.50973
G1 X129.173 Y61.452 E27.63973
G1 X130.089 Y59.442 E27.81164
G1 X131.306 Y58.07 E27.95438
G1 X132.429 Y57.177 E28.06604
G1 X134.14 Y56.356 E28.21374
G1 X135.874 Y56.029 E28.35108
G1 X137.328 Y56.007 E28.46425
G1 X138.99 Y56.101 E28.59381
G1 X140.472 Y56.315 E28.71035
G1 X141.806 Y56.625 E28.81694
G1 X143.32 Y57.11 E28.94067
G1 X144.319 Y57.506 E29.02431
G1 X145.699 Y58.178 E29.14377
G1 X146.914 Y58.876 E29.25283
G1 X148.163 Y59.723 E29.37028
G1 X149.155 Y60.524 E29.46951
G1 X150.632 Y61.902 E29.62672
G1 X151.843 Y63.604 E29.7893
G1 X152.657 Y65.344 E29.93881
G1 X153.164 Y67.317 E30.09735
G1 X153.219 Y69.336 E30.25454
G1 X152.998 Y71.032 E30.38766
G1 X152.297 Y72.725 E30.53027
G1 X151.647 Y73.711 E30.62218
G1 X150.732 Y74.717 E30.72802
G1 X151.502 Y76.298 E30.86489
G1 X152.011 Y78.492 E31.04018
G1 X151.981 Y79.658 E31.13096
G1 X167.629 Y79.719 E32.34883
G1 X169.04 Y79.92 E32.45975
G1 X171.14 Y80.65 E32.63279
G1 X173.331 Y82.105 E32.83749
G1 X174.681 Y83.575 E32.99282
G1 X175.862 Y85.329 E33.15739
G1 X176.745 Y87.954 E33.37294
G1 X176.888 Y89.96 E33.52946
G1 X176.885 Y111.36 E35.195
G1 X176.492 Y113.231 E35.34379
G1 X175.755 Y114.707 E35.47219
G1 X175.264 Y115.423 E35.53976
G1 X175.135 Y115.568 E35.55487
G1 X175.462 Y116.134 E35.60574
G1 X175.87 Y117.6 E35.72417
G1 X176.048 Y118.682 E35.80952
G1 X176.046 Y132.698 E36.90036
G1 X175.696 Y134.768 E37.06375
G1 X174.893 Y136.568 E37.21715
G1 X173.763 Y138.24 E37.37422
G1 X172.227 Y139.65 E37.53649
G1 X170.593 Y140.621 E37.68442
G1 X168.521 Y141.338 E37.85507
G1 X166.553 Y141.49 E38.00869
G1 X123.684 Y141.485 E41.34513
G1 X121.556 Y141.059 E41.51404
G1 X119.644 Y140.155 E41.67864
G1 X118.059 Y138.995 E41.8315
G1 X116.546 Y137.193 E42.01463
G1 X115.562 Y137.818 E42.10536
G1 X113.87 Y138.283 E42.24193
G1 X112.94 Y138.43 E42.3152
G1 X109.676 Y138.43 E42.56924
G1 X109.124 Y138.316 E42.61311
G1 X108.551 Y138.43 E42.65858
G1 X104.962 Y138.43 E42.9379
G1 X103.318 Y138.05 E43.06923
G1 X102.129 Y137.553 E43.16952
G1 X100.478 Y136.424 E43.32519
G1 X99.306 Y134.911 E43.47414
G1 X98.454 Y133.217 E43.62172
G1 X98.162 Y131.365 E43.76764
G1 X98.201 Y118.933 E44.73521
G1 X98.323 Y117.733 E44.82909
G1 X98.168 Y117.28 E44.86635
G1 X97.933 Y115.803 E44.98275
G1 X97.933 Y100.073 E46.20699
G1 X98.313 Y98.432 E46.33809
G1 X98.811 Y97.24 E46.43863
G1 X99.149 Y96.746 E46.48522
G1 X99.144 Y81.321 E47.68573
G1 X99.523 Y79.684 E47.8165
G1 X100.024 Y78.473 E47.9185
G1 X101.149 Y76.836 E48.07309
G0 X101.593 Y77.25
G1 X102.956 Y76.194 E48.20728
G1 X104.33 Y75.497 E48.32719
G1 X104.827 Y75.345 E48.36764
G1 X106.289 Y75.121 E48.48276
G1 X110.915 Y75.155 E48.8428
G1 X112.385 Y75.299 E48.95776
G1 X114.465 Y75.908 E49.12644
G1 X115.9 Y76.71 E49.25438
G1 X116.996 Y77.485 E49.35885
G1 X118.156 Y78.649 E49.48675
G1 X119.23 Y80.251 E49.63686
G1 X119.772 Y81.544 E49.74597
G1 X120.207 Y81.304 E49.78464
G1 X120.915 Y81.05 E49.84318
G1 X120.789 Y80.715 E49.87104
G1 X120.486 Y79.698 E49.95363
G1 X120.076 Y77.704 E50.11206
G1 X119.892 Y75.987 E50.24646
G1 X119.875 Y74.604 E50.35411
G1 X119.932 Y73.354 E50.45149
G1 X120.013 Y72.51 E50.51748
G1 X120.195 Y71.263 E50.61556
G1 X120.363 Y70.479 E50.67797
G1 X120.813 Y68.88 E50.80725
G1 X121.146 Y67.993 E50.88099
G1 X121.697 Y66.909 E50.97563
G1 X122.345 Y66.041 E51.05993
G1 X123.694 Y64.81 E51.20207
G1 X125.196 Y64.113 E51.33094
G1 X126.904 Y63.684 E51.468
G1 X128.208 Y63.719 E51.56952
G1 X129.554 Y63.696 E51.6743
G1 X129.531 Y63.213 E51.71193
G1 X129.755 Y61.622 E51.83698
G1 X130.598 Y59.773 E51.99513
G1 X131.72 Y58.507 E52.12679
G1 X132.749 Y57.689 E52.2291
G1 X134.328 Y56.931 E52.36542
G1 X135.936 Y56.628 E52.49277
G1 X137.337 Y56.607 E52.60182
G1 X138.904 Y56.695 E52.72397
G1 X140.386 Y56.909 E52.84051
G1 X141.669 Y57.209 E52.94305
G1 X143.099 Y57.668 E53.05994
G1 X144.098 Y58.064 E53.14358
G1 X145.401 Y58.699 E53.25639
G1 X146.577 Y59.373 E53.36188
G1 X147.826 Y60.22 E53.47934
G1 X148.746 Y60.963 E53.57137
G1 X150.178 Y62.299 E53.7238
G1 X151.325 Y63.911 E53.87777
G1 X152.09 Y65.546 E54.01826
G1 X152.566 Y67.399 E54.16716
G1 X152.618 Y69.306 E54.31564
G1 X152.413 Y70.877 E54.43894
G1 X151.765 Y72.442 E54.57077
G1 X151.173 Y73.34 E54.65448
G1 X149.986 Y74.644 E54.79172
G1 X150.14 Y74.872 E54.81314
G1 X150.934 Y76.501 E54.95418
G1 X151.409 Y78.55 E55.11788
G1 X151.366 Y80.256 E55.2507
G1 X167.545 Y80.313 E56.50989
G1 X168.896 Y80.505 E56.6161
G1 X170.871 Y81.192 E56.77884
G1 X172.938 Y82.565 E56.97197
G1 X174.208 Y83.948 E57.11811
G1 X175.319 Y85.597 E57.27286
G1 X176.153 Y88.075 E57.47635
G1 X176.288 Y89.96 E57.62343
G1 X176.285 Y111.299 E59.28422
G1 X175.921 Y113.031 E59.42196
G1 X175.26 Y114.368 E59.53804
G1 X174.769 Y115.084 E59.60561
G1 X174.372 Y115.484 E59.64947
G1 X174.884 Y116.296 E59.72418
G1 X175.278 Y117.697 E59.83745
G1 X175.448 Y118.73 E59.91893
G1 X175.446 Y132.645 E61.00192
G1 X175.116 Y134.595 E61.15584
G1 X174.367 Y136.275 E61.299
G1 X173.306 Y137.845 E61.44648
G1 X171.868 Y139.165 E61.5984
G1 X170.337 Y140.075 E61.73701
G1 X168.4 Y140.746 E61.89655
G1 X166.553 Y140.89 E62.04074
G1 X123.742 Y140.885 E65.37267
G1 X121.745 Y140.485 E65.53118
G1 X119.953 Y139.638 E65.68544
G1 X118.472 Y138.554 E65.82828
G1 X117.011 Y136.817 E66.00493
G1 X116.77 Y136.34 E66.04652
G1 X115.316 Y137.264 E66.1806
G1 X113.776 Y137.69 E66.30496
G1 X112.89 Y137.83 E66.37477
G1 X109.74 Y137.83 E66.61993
G1 X109.121 Y137.702 E66.66913
G1 X108.551 Y137.83 E66.7146
G1 X105.032 Y137.83 E66.98848
G1 X103.504 Y137.477 E67.11053
G1 X102.414 Y137.021 E67.20249
G1 X100.893 Y135.981 E67.34589
G1 X99.816 Y134.591 E67.48275
G1 X99.033 Y133.033 E67.61846
G1 X98.762 Y131.316 E67.75374
G1 X98.798 Y118.994 E68.71275
G1 X98.934 Y117.657 E68.81735
G1 X98.761 Y117.186 E68.8564
G1 X98.533 Y115.753 E68.96933
G1 X98.533 Y100.143 E70.18424
G1 X98.886 Y98.618 E70.30606
G1 X99.344 Y97.523 E70.39844
G1 X99.749 Y96.93 E70.45433
G1 X99.744 Y81.391 E71.66371
G1 X100.097 Y79.865 E71.78561
G1 X100.553 Y78.764 E71.87836
G1 X101.593 Y77.25 E72.02132
G0 X102.036 Y77.666
G1 X103.28 Y76.702 E72.1438
G1 X104.558 Y76.054 E72.25532
G1 X104.918 Y75.938 E72.28476
G1 X106.332 Y75.721 E72.3961
G1 X110.857 Y75.752 E72.74828
G1 X112.268 Y75.89 E72.85862
G1 X114.231 Y76.465 E73.01782
G1 X115.607 Y77.234 E73.1405
G1 X116.608 Y77.945 E73.23606
G1 X117.69 Y79.031 E73.35537
G1 X118.699 Y80.536 E73.49639
G1 X119.346 Y82.08 E73.62668
G1 X119.434 Y82.429 E73.6547
G1 X120.413 Y81.868 E73.74251
G1 X121.064 Y81.63 E73.79646
G1 X121.73 Y81.501 E73.84926
G1 X121.364 Y80.542 E73.92915
G1 X121.074 Y79.576 E74.00764
G1 X120.673 Y77.64 E74.16152
G1 X120.489 Y75.923 E74.29591
G1 X120.475 Y74.598 E74.39904
G1 X120.529 Y73.411 E74.49152
G1 X120.607 Y72.596 E74.55524
G1 X120.782 Y71.388 E74.65024
G1 X120.941 Y70.641 E74.70968
G1 X121.375 Y69.091 E74.83496
G1 X121.708 Y68.204 E74.90869
G1 X122.207 Y67.229 E74.99394
G1 X122.794 Y66.443 E75.07029
G1 X124.029 Y65.316 E75.20041
G1 X125.397 Y64.681 E75.31779
G1 X126.97 Y64.286 E75.44402
G1 X128.202 Y64.319 E75.53994
G1 X130.199 Y64.285 E75.69538
G1 X130.125 Y63.297 E75.77249
G1 X130.337 Y61.792 E75.89078
G1 X131.107 Y60.103 E76.03525
G1 X132.134 Y58.944 E76.15577
G1 X133.07 Y58.2 E76.24883
G1 X134.515 Y57.507 E76.37356
G1 X135.998 Y57.227 E76.49102
G1 X137.346 Y57.207 E76.59594
G1 X138.818 Y57.289 E76.71068
G1 X140.3 Y57.503 E76.82722
G1 X141.486 Y57.78 E76.92201
G1 X142.878 Y58.226 E77.03577
G1 X143.877 Y58.622 E77.11941
G1 X145.103 Y59.22 E77.22557
G1 X146.24 Y59.87 E77.3275
G1 X147.489 Y60.717 E77.44496
G1 X148.337 Y61.402 E77.5298
G1 X149.724 Y62.696 E77.67743
G1 X150.807 Y64.218 E77.82281
G1 X151.523 Y65.748 E77.95429
G1 X151.968 Y67.481 E78.09354
G1 X152.017 Y69.276 E78.23329
G1 X151.828 Y70.722 E78.34679
G1 X151.233 Y72.159 E78.46784
G1 X150.697 Y72.973 E78.54369
G1 X149.646 Y74.126 E78.66512
G1 X149.104 Y74.443 E78.71398
G1 X149.601 Y75.135 E78.78029
G1 X150.365 Y76.703 E78.91604
G1 X150.807 Y78.609 E79.06832
G1 X150.762 Y80.41 E79.20853
G1 X150.668 Y80.854 E79.24386
G1 X167.46 Y80.907 E80.55076
G1 X168.753 Y81.091 E80.65241
G1 X170.602 Y81.734 E80.80477
G1 X172.548 Y83.027 E80.98661
G1 X173.71 Y84.283 E81.11978
G1 X174.776 Y85.865 E81.26825
G1 X175.561 Y88.197 E81.45975
G1 X175.688 Y89.96 E81.59732
G1 X175.685 Y111.238 E83.25336
G1 X175.35 Y112.832 E83.38013
G1 X174.722 Y114.102 E83.49039
G1 X174.307 Y114.697 E83.54685
G1 X173.609 Y115.4 E83.62395
G1 X174.329 Y116.542 E83.72902
G1 X174.7 Y117.86 E83.83559
G1 X174.848 Y118.777 E83.90788
G1 X174.846 Y132.592 E84.98309
G1 X174.537 Y134.42 E85.12737
G1 X173.839 Y135.984 E85.26067
G1 X172.849 Y137.45 E85.39835
G1 X171.509 Y138.68 E85.53991
G1 X170.081 Y139.529 E85.66921
G1 X168.276 Y140.154 E85.81788
G1 X166.553 Y140.29 E85.95239
G1 X123.8 Y140.285 E89.2798
G1 X121.934 Y139.911 E89.42792
G1 X120.262 Y139.121 E89.57184
G1 X118.885 Y138.113 E89.70466
G1 X117.47 Y136.431 E89.87573
G1 X116.979 Y135.352 E89.96799
G1 X116.274 Y135.945 E90.03969
G1 X115.071 Y136.709 E90.1506
G1 X113.682 Y137.097 E90.26285
G1 X112.84 Y137.23 E90.32919
G1 X109.74 Y137.23 E90.57046
G1 X109.124 Y137.087 E90.61968
G1 X108.487 Y137.23 E90.67049
G1 X105.102 Y137.23 E90.93394
G1 X103.685 Y136.903 E91.04712
G1 X102.703 Y136.492 E91.12997
G1 X101.308 Y135.538 E91.2615
G1 X100.328 Y134.273 E91.38604
G1 X99.611 Y132.847 E91.51027
G1 X99.362 Y131.268 E91.63468
G1 X99.395 Y119.054 E92.58528
G1 X99.528 Y117.733 E92.68861
G1 X99.558 Y117.6 E92.69922
G1 X99.354 Y117.092 E92.74183
G1 X99.133 Y115.703 E92.85129
G1 X99.133 Y100.213 E94.05686
G1 X99.46 Y98.799 E94.16981
G1 X99.873 Y97.812 E94.25309
G1 X100.371 Y97.084 E94.32173
G1 X100.344 Y96.85 E94.34007
G1 X100.344 Y81.461 E95.53777
G1 X100.671 Y80.046 E95.6508
G1 X101.082 Y79.055 E95.7343
G1 X102.036 Y77.666 E95.86545
G0 X102.48 Y78.08
G1 X103.601 Y77.212 E95.97579
G1 X104.829 Y76.589 E96.08296
G1 X105.009 Y76.531 E96.09768
G1 X106.375 Y76.321 E96.20524
G1 X110.798 Y76.349 E96.54948
G1 X112.153 Y76.482 E96.65545
G1 X113.996 Y77.021 E96.8049
G1 X115.314 Y77.758 E96.92242
G1 X116.218 Y78.403 E97.00885
G1 X117.224 Y79.413 E97.1198
G1 X118.168 Y80.821 E97.25173
G1 X118.793 Y82.312 E97.37756
G1 X119.048 Y83.463 E97.46931
G1 X119.78 Y82.919 E97.54029
G1 X120.673 Y82.411 E97.62025
G1 X121.222 Y82.21 E97.66575
G1 X122.339 Y81.994 E97.7543
G1 X122.556 Y81.981 E97.77122
G1 X121.939 Y80.369 E97.90555
G1 X121.649 Y79.403 E97.98405
G1 X121.269 Y77.575 E98.12936
G1 X121.089 Y75.917 E98.25916
G1 X121.075 Y74.592 E98.36229
G1 X121.126 Y73.468 E98.44986
G1 X121.201 Y72.681 E98.51139
G1 X121.369 Y71.513 E98.60323
G1 X121.528 Y70.766 E98.66267
G1 X121.937 Y69.302 E98.78097
G1 X122.27 Y68.415 E98.85471
G1 X122.717 Y67.55 E98.93049
G1 X123.243 Y66.845 E98.99895
G1 X124.365 Y65.821 E99.11717
G1 X125.596 Y65.25 E99.22278
G1 X127.036 Y64.888 E99.33834
G1 X128.196 Y64.919 E99.42866
G1 X130.898 Y64.874 E99.63898
G1 X130.822 Y64.58 E99.66261
G1 X130.728 Y63.318 E99.76111
G1 X130.919 Y61.962 E99.86768
G1 X131.616 Y60.433 E99.99847
G1 X132.548 Y59.381 E100.10785
G1 X133.39 Y58.712 E100.19155
G1 X134.703 Y58.082 E100.30489
G1 X136.06 Y57.826 E100.41237
G1 X137.355 Y57.807 E100.51317
G1 X138.732 Y57.883 E100.6205
G1 X140.214 Y58.097 E100.73704
G1 X141.303 Y58.351 E100.82407
G1 X142.657 Y58.784 E100.93471
G1 X143.656 Y59.18 E101.01834
G1 X144.805 Y59.741 E101.11786
G1 X145.942 Y60.391 E101.21979
G1 X147.152 Y61.213 E101.33364
G1 X147.928 Y61.841 E101.41133
G1 X149.27 Y63.093 E101.55417
G1 X150.289 Y64.525 E101.69096
G1 X150.956 Y65.95 E101.81342
G1 X151.37 Y67.563 E101.94302
G1 X151.416 Y69.246 E102.07406
